images/social-github.svg

<?xml version="1.0" encoding="UTF-8"?>
<svg width="90px" height="90px" viewBox="0 0 90 90" version="1.1" xmlns="http://www.w3.org/2000/svg" xmlns:xlink="http://www.w3.org/1999/xlink">
    <!-- Generator: Sketch 42 (36781) - http://www.bohemiancoding.com/sketch -->
    <title>github</title>
    <desc>Created with Sketch.</desc>
    <defs></defs>
    <g id="00-Production" stroke="none" stroke-width="1" fill="none" fill-rule="evenodd">
        <g id="Mob-P-Gr-/-Re-06-Copy-2" transform="translate(-52.000000, -178.000000)" fill-rule="nonzero" fill="#E0E0E0">
            <g id="github" transform="translate(52.000000, 178.000000)">
                <path d="M45,0 C20.1489258,0 0,20.6531532 0,46.1261261 C0,66.509009 12.8925,83.795045 30.7754297,89.892973 C33.0249023,90.3153153 33.8461523,88.8907207 33.8461523,87.6745045 C33.8461523,86.5764865 33.8049316,82.9391892 33.782959,79.0878378 C21.2695312,81.874955 18.6245508,73.6486486 18.6245508,73.6486486 C16.5756445,68.3220721 13.6284961,66.9031532 13.6284961,66.9031532 C9.53885742,64.0427928 13.93875,64.0990991 13.93875,64.0990991 C18.4568555,64.42 20.8355273,68.8513514 20.8355273,68.8513514 C24.8510742,75.9009009 31.371416,73.8626126 33.9312305,72.6801802 C34.3402734,69.7072072 35.5048242,67.6689189 36.7876758,66.5202703 C26.7983789,65.3547748 16.29,61.3963964 16.29,43.7218018 C16.29,38.6823423 18.0450879,34.5720721 20.9179687,31.3428829 C20.4592676,30.1717117 18.9101953,25.4785586 21.3628711,19.1300901 C21.3628711,19.1300901 25.1367187,17.8913514 33.7389258,23.8598198 C37.325918,22.8322523 41.1739453,22.3254955 44.9999121,22.3085586 C48.8231543,22.3254955 52.6738184,22.8378378 56.2664355,23.8654054 C64.8522949,17.8913514 68.6315918,19.1356757 68.6315918,19.1356757 C71.0925293,25.4898198 69.543457,30.1772973 69.0820312,31.3428829 C71.9658984,34.5720721 73.7072754,38.6824324 73.7072754,43.7218018 C73.7072754,61.4414414 63.182373,65.3434234 53.1573926,66.4864865 C54.7779199,67.9166667 56.2115918,70.7207207 56.2115918,75.0225225 C56.2115918,81.1881081 56.151123,86.1599099 56.151123,87.6801802 C56.151123,88.9076577 56.9695605,90.3434234 59.2492676,89.892973 C77.1185742,83.7837838 90,66.4977477 90,46.1261261 C90,20.6531532 69.8510742,0 45,0 Z" id="Shape"></path>
            </g>
        </g>
    </g>
</svg>

<svg width="90" height="90" viewBox="0 0 90 90" xmlns="http://www.w3.org/2000/svg"><title>github</title><path d="M45 0C20.149 0 0 20.653 0 46.126 0 66.51 12.893 83.795 30.775 89.893c2.25.422 3.071-1.002 3.071-2.218 0-1.099-.041-4.736-.063-8.587-12.513 2.787-15.158-5.44-15.158-5.44-2.05-5.326-4.997-6.745-4.997-6.745-4.09-2.86.31-2.804.31-2.804 4.519.321 6.898 4.752 6.898 4.752 4.015 7.05 10.535 5.012 13.095 3.83.41-2.974 1.574-5.012 2.857-6.16-9.99-1.166-20.498-5.125-20.498-22.8 0-5.039 1.755-9.149 4.628-12.378-.459-1.171-2.008-5.864.445-12.213 0 0 3.774-1.239 12.376 4.73 3.587-1.028 7.435-1.535 11.26-1.551 3.824.016 7.675.529 11.267 1.556 8.586-5.974 12.366-4.73 12.366-4.73 2.46 6.355.911 11.042.45 12.208 2.884 3.23 4.625 7.34 4.625 12.379 0 17.72-10.525 21.621-20.55 22.764 1.62 1.43 3.055 4.235 3.055 8.537 0 6.165-.06 11.137-.06 12.657 0 1.228.818 2.663 3.097 2.213C77.12 83.783 90 66.498 90 46.126 90 20.653 69.851 0 45 0z" fill="#E0E0E0"/></svg>
